X:145
T:Turkish Jigg. JJo8.145
%%VWML:JohnsonVol8-2184-p73-0
F:http://www.vwml.org/record/JohnsonVol8/2184/p73
Z:Transcribed by Simon Furey and Lewis Jones
Z:vmp.Simon Wilson 2013 www.village-music-project.org.uk
Z:Dance added by John Chambers 2017
M:6/8
L:1/8
%Q:3/8=100
K:G
|: BGG BGG | GBd Tgfg | BGG BGG | DEFG3 :|\
|: Bdd Add | ^ceg fed | afb gea | AB^cd3 :|
|: Bcd efg | ABc def | GAB cde | DEFG3 :|\
|: dBG ecA | fdfg3 | ecA dBG | DEFG3 :|
W: The 1st Cu. cast off one Cu. .| and up
W:again ..| 1st Man set across and not
W:turn .| the Wo. do the same ..| Gallop
W:down and up cast off ..| and right
W:Hands and left at top ..|
W:
T:Cavendish Court or.. JJo8.146
B:J.Johnson Choice Collection Vol 8 1758
Z:vmp.Simon Wilson 2013 www.village-music-project.org.uk
Z:Dance added by John Chambers 2017
T:Look Sharp. JJo8.146
M:3/4
L:1/8
%Q:3/4=40
P: The Minuet 4 times, the last tune twice.
K:G
% - - - - -
|:\
G4g2 | f>ad2d2 | c>eA2A2 | F>AD2D2 |\
EGFAGB | A2^c2d2 | faA2T^c2 | d2D4 :|
% - - - - -
%Q:1/4=100
M:2/4
"_Brisk"\
|:\
G/g/f/e/ d/c/B/A/ | GGG2 |\
D/d/c/B/ A/G/F/E/ | DDD2 :|
|:\
B/d/B/G/ c/e/c/A/ | f/d/e/f/ gg |\
B/d/B/G/ A/c/A/F/ | GGG2 :|
% - - - - -
W: The 1st Man right hands with the 2d
W:Wo. with the Minuet Step .| the 1st Wo.
W:do the same with the 2d Man ..| then
W:right hands across all rour .| and left
W:hands back again ..| the 1st Man set to
W:the 2d Wo. and not turn .| the 1st Wo.
W:do the same to the 2d Man ..| then
W:cross over and turn your Partner ..|
W:the 1st Cu. cast up and cast off and
W:hands Six round ..|
W:
